X: 105
T:New Tartar's Plaid. WM.105
M:C
L:1/8
Q:180
S:Wm.Mittell's MS,New Romney,Kent,1799
R:Reel
O:England
A:Kent
N:
D:
H:
Z:vmp.Chris Partington
W:
K:G
(B/c/)|dGBG dGBG|dG Bc/d/ eA AB/c/|dGBG dGBG|cedc BGG:|!
|:G|DGB,G DGBG|DGB,G BA,A,G|DGB,G DFBd|cedc BGGG|!
DGB,G DGBG|DGB,G AA,A, B/-c/|ecdB cABG|cedc BGG:||
